X: 18
T:Country Gardens, Headington (Carey)
M:4/4
L:1/8
Q:1/4=180
A:Headington
P:A(AB)4
K:G
P:A
|:efgf e2ee|dedc B2Bc|d2G2 A2d2|B3A G4:|
P:B
|:gfge f2d2|gfge f2d2|g2gf e2a2|f3e d4|
  d2gf e2ee|dedc B2Bc|d2G2 A2d2|B3A G4:|
